icons/rojo.svg

<!--
  - The MIT License (MIT)
  -
  - Copyright (c) 2015-2024 Elior "Mallowigi" Boukhobza
  -
  - Permission is hereby granted, free of charge, to any person obtaining a copy
  - of this software and associated documentation files (the "Software"), to deal
  - in the Software without restriction, including without limitation the rights
  - to use, copy, modify, merge, publish, distribute, sublicense, and/or sell
  - copies of the Software, and to permit persons to whom the Software is
  - furnished to do so, subject to the following conditions:
  -
  - The above copyright notice and this permission notice shall be included in all
  - copies or substantial portions of the Software.
  -
  - THE SOFTWARE IS PROVIDED "AS IS", WITHOUT WARRANTY OF ANY KIND, EXPRESS OR
  - IMPLIED, INCLUDING BUT NOT LIMITED TO THE WARRANTIES OF MERCHANTABILITY,
  - FITNESS FOR A PARTICULAR PURPOSE AND NONINFRINGEMENT. IN NO EVENT SHALL THE
  - AUTHORS OR COPYRIGHT HOLDERS BE LIABLE FOR ANY CLAIM, DAMAGES OR OTHER
  - LIABILITY, WHETHER IN AN ACTION OF CONTRACT, TORT OR OTHERWISE, ARISING FROM,
  - OUT OF OR IN CONNECTION WITH THE SOFTWARE OR THE USE OR OTHER DEALINGS IN THE
  - SOFTWARE.
  -
  -->

<svg width="16px" height="16px" viewBox="0 0 24 24" fill="none" xmlns="http://www.w3.org/2000/svg">
  <path
      d="M9.58584 2H9.66309L9.58584 2.13519V2.42489C10.1845 2.30901 10.4936 2.15451 10.4936 2L10.9185 2.05794C11.633 2.01931 12.2704 2 12.8691 2H12.9464C13.8734 2 14.9549 2.50215 16.2296 3.52575C16.5 3.96996 16.6545 4.35623 16.7318 4.72318V5.41846C16.5773 6.38413 16.3069 7.11803 15.9592 7.60086C15.7468 7.77468 15.2833 8.35408 14.5687 9.33906H14.4914V9.20387L14.6845 8.91417H14.5687C12.9077 10.324 11.0536 11.4056 8.96781 12.1395C8.44635 12.2747 7.92489 12.3519 7.42275 12.3519C8.0794 13.1245 9.29614 14.1481 11.0536 15.4228C11.2275 15.5193 12.3476 16.2339 14.4142 17.6052C16.133 18.6674 18.1803 19.8262 20.5751 21.1009V21.1781H20.2854C19.8219 21.0043 19.5901 20.8691 19.5901 20.8112L19.4549 20.8884H19.3197C19.2618 20.8884 19.2425 20.8691 19.2425 20.8112C19.0687 20.8498 18.9335 21.0236 18.8176 21.3133C19.1073 21.3906 19.2425 21.4871 19.2425 21.5837C19.1266 21.6803 19.0494 21.7382 18.9721 21.7382L18.6245 21.661V21.7382C18.6245 21.8155 18.6824 21.8734 18.8176 21.8734V22.0859H18.7597C18.6631 22.0859 17.6009 21.4678 15.6116 20.2511C14.2017 19.5365 12.4635 18.4356 10.4356 16.9678C9.75966 16.6588 8.52361 15.7511 6.70815 14.2446H6.51502C6.24464 14.6502 5.897 15.6545 5.45279 17.2575C5.35622 17.6245 4.8927 18.1653 4.06223 18.8605H3.90773L3.77253 18.6481V18.5708C3.77253 18.4743 3.84979 18.2618 3.98498 17.9528V17.8756H3.90773C3.90773 18.0107 3.61803 18.2232 3.07725 18.5129H3V18.3777C4.64163 13.5107 5.78112 10.3434 6.43777 8.85623C7.55794 6.28756 8.11803 4.81975 8.11803 4.45279C7.86695 4.45279 7.30687 4.76181 6.43777 5.41846H6.30258L6.36052 5.28327V5.14807C6.10944 5.14807 5.53004 5.55365 4.62232 6.40344H4.54506V6.32618L5.45279 5.28327L5.6073 5.07082V4.99357H5.45279L4.62232 5.68885C4.52575 5.68885 4.48712 5.65022 4.48712 5.57296C5.35622 4.6073 6.41845 3.77683 7.69313 3.12017C8.87124 2.81116 9.45064 2.46352 9.45064 2.05794L9.58584 2ZM15.9592 3.95065V4.0279C15.9592 4.10515 16.0172 4.16309 16.0944 4.16309V4.08584C16.0944 4.00859 16.0558 3.95065 15.9592 3.95065ZM7.77039 10.6717H7.82833C8.67811 10.4979 9.103 10.3627 9.103 10.2468C9.04506 10.1502 9.02575 10.0923 9.02575 10.0343C10.8026 9.43563 12 8.83692 12.5987 8.21889C12.6567 8.21889 13.0236 7.83262 13.7189 7.02146H13.7961V7.09872C13.6996 7.25322 13.6416 7.3691 13.6416 7.44636H13.7189C14.3176 6.98284 14.6266 6.48069 14.6266 5.9206V5.49571C14.4914 5.49571 14.4142 5.43777 14.4142 5.34121C14.6459 5.30258 14.7618 5.1867 14.7618 4.99357C14.7618 4.76181 14.2983 4.53005 13.3712 4.29829C12.618 4.10515 11.8069 4.0279 10.9185 4.0279C10.4742 4.0279 10.03 4.83906 9.58584 6.48069C9.3927 6.67382 8.79399 8.06438 7.77039 10.6717ZM8.60086 4.72318V4.80043C8.67811 4.80043 8.73605 4.72318 8.8133 4.58799V4.51073C8.75536 4.51073 8.67811 4.58799 8.60086 4.72318ZM8.67811 6.0558H8.75537C8.89056 5.99786 8.96781 5.86266 8.96781 5.6309C8.89056 5.6309 8.79399 5.7661 8.67811 6.0558ZM15.2639 6.32618V6.48069C15.3219 6.48069 15.3991 6.40344 15.4571 6.26824V6.19099H15.3991C15.3026 6.2103 15.2639 6.24893 15.2639 6.32618ZM7.69313 11.0193V11.0966H7.82833C7.92489 11.0386 8.00215 11.0193 8.04077 11.0193V11.0966C9.18026 10.8841 9.85622 10.6524 10.088 10.4013H10.0107C8.98712 10.6331 8.21459 10.8455 7.69313 11.0193ZM7.42275 11.7146H7.48069L8.75537 11.4442L8.67811 11.309C7.84764 11.4056 7.42275 11.5601 7.42275 11.7146ZM10.2039 16.0601V16.1953C10.9378 16.7554 11.382 17.0451 11.5365 17.0451C11.3627 16.9099 11.2661 16.794 11.2661 16.6974L10.2039 16.0601ZM12.2511 17.6052C12.2897 17.779 12.4249 17.8756 12.6567 17.8756H12.7339V17.7983C12.618 17.7983 12.4828 17.7404 12.309 17.6052H12.2511ZM16.7897 20.1159C17.1567 20.4442 17.7167 20.7725 18.47 21.1009L18.5472 20.9657C17.9678 20.618 17.427 20.3283 16.9442 20.1159H16.7897ZM20.6524 21.2361H20.8648C20.9421 21.2554 21 21.294 21 21.3713C20.9034 21.3713 20.8648 21.4485 20.8648 21.5837H20.7103L20.7876 21.4485V21.3713H20.6524V21.2361Z"
      fill="#E13835" data-iconColor="Rojo"/>
</svg>

<svg xmlns="http://www.w3.org/2000/svg" fill="none" viewBox="0 0 24 24"><path fill="#e53935" d="M9.586 2h.077l-.077.135v.29c.598-.116.908-.27.908-.425l.425.058A36 36 0 0 1 12.869 2h.077c.927 0 2.009.502 3.284 1.526.27.444.424.83.502 1.197v.695c-.155.966-.425 1.7-.773 2.183q-.319.26-1.39 1.738h-.078v-.135l.194-.29h-.116a17.6 17.6 0 0 1-5.601 3.226 6.2 6.2 0 0 1-1.545.212c.656.772 1.873 1.796 3.63 3.07.174.097 1.295.812 3.361 2.183 1.719 1.062 3.766 2.221 6.161 3.496v.077h-.29c-.463-.174-.695-.309-.695-.367l-.135.077h-.135c-.058 0-.078-.019-.078-.077-.173.039-.309.213-.424.502.29.078.424.174.424.27-.115.097-.193.155-.27.155l-.348-.077v.077c0 .078.058.135.194.135v.213h-.058c-.097 0-1.16-.618-3.148-1.835-1.41-.715-3.149-1.815-5.176-3.283-.676-.31-1.912-1.217-3.728-2.723h-.193c-.27.405-.618 1.41-1.062 3.013-.097.367-.56.907-1.39 1.602h-.155l-.135-.212v-.077c0-.097.077-.31.212-.618v-.077h-.077c0 .135-.29.347-.83.637H3v-.135c1.642-4.867 2.781-8.035 3.438-9.522q1.68-3.852 1.68-4.403c-.251 0-.811.309-1.68.965h-.135l.058-.135v-.135c-.252 0-.831.406-1.739 1.255h-.077v-.077l.908-1.043.154-.212v-.077h-.154l-.83.695c-.097 0-.136-.039-.136-.116A11.1 11.1 0 0 1 7.693 3.12c1.178-.309 1.758-.656 1.758-1.062zm6.373 1.95v.078c0 .077.058.135.135.135v-.077c0-.077-.038-.135-.135-.135M7.77 10.673h.058c.85-.174 1.275-.31 1.275-.425-.058-.097-.077-.155-.077-.213C10.803 9.436 12 8.837 12.599 8.22c.058 0 .425-.386 1.12-1.198h.077V7.1c-.096.154-.154.27-.154.347h.077c.599-.463.908-.965.908-1.525v-.425c-.136 0-.213-.058-.213-.155q.348-.057.348-.347 0-.348-1.39-.696c-.754-.193-1.565-.27-2.453-.27-.445 0-.889.811-1.333 2.453-.193.193-.792 1.583-1.816 4.19m.83-5.949V4.8c.078 0 .136-.077.213-.212v-.077c-.058 0-.135.077-.212.212m.078 1.333h.077c.136-.058.213-.193.213-.425-.077 0-.174.135-.29.425m6.586.27v.155c.058 0 .135-.078.193-.213v-.077H15.4c-.096.02-.135.058-.135.135m-7.57 4.693v.078h.134a.5.5 0 0 1 .213-.078v.078c1.14-.213 1.815-.445 2.047-.696h-.077c-1.024.232-1.796.444-2.318.618m-.271.696h.058l1.274-.27-.077-.136c-.83.097-1.255.251-1.255.406m2.78 4.345v.135c.735.56 1.179.85 1.334.85-.174-.135-.27-.251-.27-.348zm2.048 1.545c.039.174.174.27.406.27h.077v-.077c-.116 0-.251-.058-.425-.193zm4.539 2.51q.55.495 1.68.986l.077-.135c-.58-.348-1.12-.638-1.603-.85zm3.862 1.121h.213c.077.02.135.058.135.135-.097 0-.135.078-.135.213h-.155l.078-.136v-.077h-.136z"/></svg>
